packages/core/assets/Icons/left_panel_open_outlined.svg

<svg viewBox="0 0 20 20" fill="none" xmlns="http://www.w3.org/2000/svg">
<path d="M10.4167 7.66667V12.3333C10.4167 12.5278 10.5 12.6597 10.6667 12.7292C10.8333 12.7986 10.9861 12.7639 11.125 12.625L13.1667 10.5833C13.3333 10.4167 13.4167 10.2222 13.4167 10C13.4167 9.77778 13.3333 9.58333 13.1667 9.41667L11.125 7.375C10.9861 7.23611 10.8333 7.20139 10.6667 7.27083C10.5 7.34028 10.4167 7.47222 10.4167 7.66667ZM4.16667 17.5C3.70833 17.5 3.31597 17.3368 2.98958 17.0104C2.66319 16.684 2.5 16.2917 2.5 15.8333V4.16667C2.5 3.70833 2.66319 3.31597 2.98958 2.98958C3.31597 2.66319 3.70833 2.5 4.16667 2.5H15.8333C16.2917 2.5 16.684 2.66319 17.0104 2.98958C17.3368 3.31597 17.5 3.70833 17.5 4.16667V15.8333C17.5 16.2917 17.3368 16.684 17.0104 17.0104C16.684 17.3368 16.2917 17.5 15.8333 17.5H4.16667ZM6.66667 15.8333V4.16667H4.16667V15.8333H6.66667ZM8.33333 15.8333H15.8333V4.16667H8.33333V15.8333Z" fill="currentColor"/>
</svg>

<svg xmlns="http://www.w3.org/2000/svg" width="20" height="20" fill="none" viewBox="0 0 20 20">
  <path fill="#201F1F" d="M10.417 7.667v4.666c0 .195.083.327.25.396.166.07.32.035.458-.104l2.042-2.042a.8.8 0 0 0 .25-.583.8.8 0 0 0-.25-.583l-2.042-2.042c-.139-.139-.292-.174-.458-.104-.167.07-.25.201-.25.396ZM4.167 17.5c-.459 0-.851-.163-1.177-.49a1.605 1.605 0 0 1-.49-1.177V4.167c0-.459.163-.851.49-1.177.326-.327.718-.49 1.177-.49h11.666c.459 0 .851.163 1.177.49.327.326.49.718.49 1.177v11.666c0 .459-.163.851-.49 1.177-.326.327-.718.49-1.177.49H4.167Zm2.5-1.667V4.167h-2.5v11.666h2.5Zm1.666 0h7.5V4.167h-7.5v11.666Z"/>
</svg>
